X:1
T:The Star of Logy Bay
M:3/4
L:1/4
K:C
E/2-D/2| C2 E| D2 G| B2 A| G2D/2-E/2| D2 D| C2 B,| C3-| C z G| c2 e|\
 d- B d| c2 c| B2 A/2A/2| G2 D| E2 F| G3-| G z| G| c2 e| d- B d| c2 c|\
 B2 A| G2 D| E2 F| G3| G2E/2-D/2| C2 E| D2 G| B2- A| G2D/2-E/2| F2 D|\
 C2 B,| C3-| C z||

